packages/core/src/svgs/ach.svg

<svg width="24" height="24" viewBox="0 0 24 24" fill="none" xmlns="http://www.w3.org/2000/svg">
<g clip-path="url(#clip0_31_5534)">
<path d="M0 0H24V24H0V0Z" fill="#020041"/>
<path d="M14.1429 7.63693L12.0001 3.85693L9.85721 7.63693V12.7026C10.2109 12.3459 10.6313 12.0624 11.0946 11.8682C11.5579 11.6741 12.0549 11.5732 12.5572 11.5712C13.1186 11.5712 13.6586 11.6998 14.1429 11.9269V7.64122V7.63693ZM15.4286 9.90836V16.7141H19.2858L15.4286 9.90836ZM14.1429 16.7141H10.0715C9.9296 16.3747 9.85676 16.0105 9.85721 15.6426C9.857 15.1429 9.99122 14.6523 10.2458 14.2223C10.5004 13.7923 10.866 13.4387 11.3042 13.1985C11.7424 12.9584 12.2372 12.8405 12.7367 12.8573C13.2361 12.8741 13.7218 13.025 14.1429 13.2941V16.7141ZM8.5715 16.7141H4.71436L8.5715 9.90836V16.7141Z" fill="white"/>
</g>
<defs>
<clipPath id="clip0_31_5534">
<rect width="24" height="24" fill="white"/>
</clipPath>
</defs>
</svg>

<svg xmlns="http://www.w3.org/2000/svg" width="24" height="24" fill="none" viewBox="0 0 24 24"><g clip-path="url(#a)"><path fill="#020041" d="M0 0h24v24H0z"/><path fill="#fff" d="M14.143 7.637 12 3.857l-2.143 3.78v5.066a3.83 3.83 0 0 1 2.7-1.132c.562 0 1.102.129 1.586.356v-4.29m1.286 2.271v6.806h3.857zm-1.286 6.806H10.07a2.786 2.786 0 0 1 4.071-3.42zm-5.571 0H4.714l3.858-6.806z"/></g><defs><clipPath id="a"><path fill="#fff" d="M0 0h24v24H0z"/></clipPath></defs></svg>
